frontend/public/svg/health/injection.svg

<svg width="152" height="133" viewBox="0 0 152 133" fill="none" xmlns="http://www.w3.org/2000/svg">
<g clip-path="url(#clip0)">
<path d="M119.284 24.01L134.521 10.4237C133.909 9.40573 133.224 8.38913 132.67 7.31142C132.164 6.32299 131.47 5.26374 131.463 4.23132C131.455 3.14902 131.875 1.5633 132.644 1.11371C133.441 0.647714 134.919 1.15177 136.024 1.48322C136.595 1.65453 137.013 2.36073 137.48 2.84445C141.067 6.55867 144.696 10.2341 148.206 14.0192C149.398 15.3466 150.44 16.8009 151.314 18.3558C152.278 20.0137 151.831 21.6662 150.518 22.9605C149.237 24.222 147.62 24.0934 146.111 23.4436C144.998 22.8604 143.927 22.2011 142.904 21.4706L127.777 33.8242C129.67 35.9507 131.136 37.7858 132.797 39.4254C136.346 42.9315 135.571 47.6139 132.12 50.4828C114.858 64.8369 97.8199 79.4622 80.6252 93.8991C77.7806 96.2678 74.7372 98.3878 71.5297 100.237C67.7951 102.403 65.8143 101.828 63.1246 98.4488C61.9432 96.9661 60.8334 95.4296 59.5411 93.7232C56.8501 95.3049 54.3429 96.9957 51.6447 98.288C49.8916 99.1274 47.8563 99.3736 45.9549 99.9124C45.23 100.05 44.5308 100.299 43.8828 100.652C31.8109 108.896 20.5972 118.221 9.67443 127.91C8.5899 128.886 7.44022 129.788 6.23332 130.609C4.40214 131.832 2.86438 131.809 1.97242 130.706C1.08045 129.604 1.32189 127.955 2.87873 126.572C11.0173 119.341 19.1395 112.087 27.3969 104.993C31.7287 101.27 36.3297 97.8587 41.1091 94.0684C40.4942 91.1063 42.3725 89.1636 45.0084 87.4597C47.3344 85.9561 49.4282 84.0927 51.753 82.2891C50.6044 80.5465 49.6165 79.073 48.6517 77.5805C46.2823 73.9228 46.4203 72.0515 49.6869 69.0632C53.6617 65.4269 57.7381 61.8978 61.8533 58.4205C76.1739 46.3225 90.5123 34.2459 104.869 22.1907C105.985 21.2509 107.022 20.2184 108.127 19.266C110.846 16.9229 112.546 16.9177 115.137 19.4229C116.577 20.8084 117.836 22.3895 119.284 24.01ZM69.0139 95.5123C82.0199 85.8392 93.6968 74.7648 105.992 64.5953C100.523 56.695 95.2622 49.0953 89.8356 41.2547L52.1475 72.9488L69.0139 95.5123ZM95.4112 36.6577L113.145 58.5577L128.232 44.8034C122.784 37.5784 117.612 30.7158 112.185 23.5158L95.4112 36.6577ZM54.1971 86.0263C48.8066 90.1087 47.6337 91.3715 47.1474 94.0192L55.8112 88.4127L54.1971 86.0263ZM131.816 22.5255L131.323 22.0003C128.927 24.0146 126.507 26.0041 124.164 28.0768C123.886 28.3229 124.024 29.0388 123.957 29.642C126.735 27.1243 129.276 24.8253 131.816 22.5255H131.816Z" fill="black"/>
</g>
<defs>
<clipPath id="clip0">
<rect width="150.958" height="131.268" fill="white" transform="translate(0.942505 0.855957)"/>
</clipPath>
</defs>
</svg>

<svg xmlns="http://www.w3.org/2000/svg" width="152" height="133" fill="none" viewBox="0 0 152 133"><g clip-path="url(#a)"><path fill="#000" d="m119.284 24.01 15.237-13.586c-.612-1.018-1.297-2.035-1.851-3.113-.506-.988-1.2-2.047-1.207-3.08-.008-1.082.412-2.668 1.181-3.117.797-.466 2.275.038 3.38.37.571.17.989.877 1.456 1.36 3.587 3.715 7.216 7.39 10.726 11.175a24.3 24.3 0 0 1 3.108 4.337c.964 1.658.517 3.31-.796 4.604-1.281 1.262-2.898 1.133-4.407.484a27 27 0 0 1-3.207-1.973l-15.127 12.353c1.893 2.127 3.359 3.962 5.02 5.601 3.549 3.507 2.774 8.189-.677 11.058-17.262 14.354-34.3 28.98-51.495 43.416a65 65 0 0 1-9.095 6.338c-3.735 2.166-5.716 1.591-8.405-1.788-1.182-1.483-2.292-3.02-3.584-4.726-2.69 1.582-5.198 3.273-7.896 4.565-1.753.84-3.789 1.086-5.69 1.624a7.1 7.1 0 0 0-2.072.74c-12.072 8.244-23.286 17.569-34.209 27.258a32 32 0 0 1-3.44 2.699c-1.832 1.223-3.37 1.2-4.262.097s-.65-2.751.907-4.134c8.138-7.231 16.26-14.485 24.518-21.579 4.332-3.723 8.933-7.134 13.712-10.925-.615-2.962 1.264-4.904 3.9-6.608 2.325-1.504 4.42-3.367 6.744-5.17-1.149-1.744-2.136-3.217-3.101-4.71-2.37-3.657-2.232-5.528 1.035-8.517 3.975-3.636 8.051-7.165 12.166-10.643a18830 18830 0 0 1 43.016-36.23c1.116-.94 2.153-1.972 3.258-2.924 2.719-2.343 4.419-2.348 7.01.157 1.44 1.385 2.699 2.967 4.147 4.587m-50.27 71.502c13.006-9.673 24.683-20.747 36.978-30.917l-16.156-23.34-37.688 31.694zM95.41 36.658l17.734 21.9 15.087-13.755c-5.448-7.225-10.62-14.087-16.047-21.287zM54.197 86.026c-5.39 4.083-6.563 5.346-7.05 7.993l8.664-5.606zm77.619-63.5-.493-.526c-2.396 2.015-4.816 4.004-7.159 6.077-.278.246-.14.962-.207 1.565 2.778-2.518 5.319-4.817 7.859-7.116"/></g><defs><clipPath id="a"><path fill="#fff" d="M.943.856H151.9v131.268H.943z"/></clipPath></defs></svg>
